public/primaries/Train.svg

<svg id="Layer_1" data-name="Layer 1" xmlns="http://www.w3.org/2000/svg" width="64" height="64" viewBox="0 0 64 64">
  <defs>
    <style>
      .cls-1 {
        fill-rule: evenodd;
      }
    </style>
  </defs>
  <title>Icons 200</title>
  <path class="cls-1" d="M47.5547,43.7735A5,5,0,0,1,43.3946,46H20.6057a5,5,0,0,1-4.16-2.2265L15.689,42.6389A16.01,16.01,0,0,1,13,33.7579a27.9382,27.9382,0,0,1,.2564-3.777l2.5263-18.5215A4,4,0,0,1,19.7461,8H44.2542a4,4,0,0,1,3.9633,3.4594l2.5262,18.5215A27.9546,27.9546,0,0,1,51,33.7579a16.0106,16.0106,0,0,1-2.6889,8.881ZM20,38a3,3,0,1,0-3-3A3,3,0,0,0,20,38ZM46.2819,26.8648l-1.637-12A1,1,0,0,0,43.654,14H20.3463a1,1,0,0,0-.9909.8648l-1.6368,12A1,1,0,0,0,18.7094,28H45.291A1,1,0,0,0,46.2819,26.8648ZM44,32a3,3,0,1,0,3,3A3,3,0,0,0,44,32ZM21.19,48.4453A0.9948,0.9948,0,0,1,22.019,48h0.9967a1,1,0,0,1,.9454,1.3164L23.734,50H40.2353l-0.2271-.6837A0.9985,0.9985,0,0,1,40.9532,48H41.95a0.9959,0.9959,0,0,1,.8291.4453l3.9862,6A1,1,0,0,1,45.9359,56h-2.99a0.9957,0.9957,0,0,1-.9449-0.6837L41.564,54H22.4053L21.968,55.3163A0.9967,0.9967,0,0,1,21.0226,56h-2.99a1,1,0,0,1-.8291-1.5547Z"/>
</svg>

<svg id="Layer_1" data-name="Layer 1" xmlns="http://www.w3.org/2000/svg" width="64" height="64" viewBox="0 0 64 64"><defs><style>.cls-1{fill-rule:evenodd}</style></defs><title>Icons 200</title><path class="cls-1" d="M47.555 43.773A5 5 0 0 1 43.395 46h-22.79a5 5 0 0 1-4.16-2.227l-.756-1.134A16.01 16.01 0 0 1 13 33.758a27.938 27.938 0 0 1 .256-3.777l2.527-18.522A4 4 0 0 1 19.746 8h24.508a4 4 0 0 1 3.963 3.46l2.527 18.52A27.955 27.955 0 0 1 51 33.759a16.01 16.01 0 0 1-2.689 8.88zM20 38a3 3 0 1 0-3-3 3 3 0 0 0 3 3zm26.282-11.135l-1.637-12a1 1 0 0 0-.991-.865H20.346a1 1 0 0 0-.99.865l-1.637 12a1 1 0 0 0 .99 1.135h26.582a1 1 0 0 0 .99-1.135zM44 32a3 3 0 1 0 3 3 3 3 0 0 0-3-3zM21.19 48.445a.995.995 0 0 1 .829-.445h.997a1 1 0 0 1 .945 1.316l-.227.684h16.501l-.227-.684A.999.999 0 0 1 40.953 48h.997a.996.996 0 0 1 .83.445l3.985 6a1 1 0 0 1-.83 1.555h-2.99a.996.996 0 0 1-.944-.684L41.564 54H22.405l-.437 1.316a.997.997 0 0 1-.945.684h-2.99a1 1 0 0 1-.83-1.555z"/></svg>
